assets/1. F-P/Lotus/Color/Lotus-color.svg

<svg width="100%" height="100%" viewBox="0 0 32 32" fill="none" xmlns="http://www.w3.org/2000/svg">
<path d="M17.6878 6.99126H14.3156C14.3156 3.78256 10.719 1.90093 8.0745 3.71845C4.39459 6.25079 1.98405 10.4981 2.00008 15.3063C2.02572 23.0572 8.38864 29.3336 16.1363 29.2598C23.8071 29.1861 30.0001 22.9482 30.0001 15.2582C30.0001 10.4532 27.58 6.21553 23.8936 3.69601C21.2619 1.89452 17.6878 3.80179 17.6878 6.99126Z" fill="url(#paint0_linear_28327_8052)"/>
<path d="M11.3922 6.23164C9.86637 9.97245 11.6646 14.2422 15.4054 15.768C15.7805 15.9219 16.21 15.7423 16.3607 15.3641C17.8865 11.6233 16.0882 7.35356 12.3474 5.82775C11.9724 5.67388 11.546 5.85339 11.3922 6.23164Z" fill="#EC098D"/>
<path d="M15.5914 16.2072C14.0656 19.948 15.8639 24.2177 19.6047 25.7435C19.9797 25.8974 20.4092 25.7179 20.5599 25.3396C22.0857 21.5988 20.2874 17.3291 16.5466 15.8033C16.1716 15.6526 15.7421 15.8321 15.5914 16.2072Z" fill="#EC098D"/>
<path d="M5.97811 12.2708C7.54559 15.9956 11.8345 17.7426 15.5593 16.1783C15.9344 16.0212 16.1075 15.5917 15.9504 15.2167C14.3829 11.4919 10.094 9.74168 6.36918 11.3092C5.99734 11.4662 5.82104 11.8958 5.97811 12.2708Z" fill="#EC098D"/>
<path d="M16.0017 16.358C17.5692 20.0827 21.8581 21.8329 25.5829 20.2654C25.958 20.1084 26.1311 19.6788 25.974 19.3038C24.4065 15.579 20.1175 13.8288 16.3928 15.3963C16.0177 15.5534 15.8446 15.9829 16.0017 16.358Z" fill="#EC098D"/>
<path d="M6.42043 20.371C10.1613 21.8968 14.431 20.0985 15.9568 16.3577C16.1107 15.9826 15.9312 15.5531 15.5529 15.4024C11.8121 13.8766 7.54236 15.6749 6.01654 19.4157C5.86588 19.7876 6.04539 20.2171 6.42043 20.371Z" fill="#EC098D"/>
<path d="M16.396 16.1717C20.1368 17.6975 24.4065 15.8993 25.9323 12.1585C26.0862 11.7834 25.9067 11.3539 25.5284 11.2032C21.7876 9.6774 17.5179 11.4757 15.9921 15.2165C15.8414 15.5915 16.0209 16.0179 16.396 16.1717Z" fill="#EC098D"/>
<path d="M12.4597 25.7853C16.1845 24.2178 17.9347 19.9289 16.3672 16.2041C16.2101 15.8291 15.7806 15.656 15.4055 15.813C11.6807 17.3773 9.93052 21.6695 11.498 25.3942C11.6551 25.7661 12.0878 25.9424 12.4597 25.7853Z" fill="#EC098D"/>
<path d="M16.4728 15.7519C20.1976 14.1876 21.9478 9.89543 20.3804 6.17065C20.2233 5.79561 19.7937 5.62251 19.4187 5.77958C15.6939 7.34707 13.9437 11.636 15.5112 15.3608C15.6715 15.7358 16.101 15.9121 16.4728 15.7519Z" fill="#EC098D"/>
<path d="M15.3734 3.51663C12.0621 6.82791 12.0621 12.2003 15.3734 15.5116C15.7068 15.845 16.2453 15.845 16.5755 15.5116C19.8867 12.2003 19.8867 6.82791 16.5755 3.51663C16.2453 3.18326 15.7068 3.18326 15.3734 3.51663Z" fill="url(#paint1_linear_28327_8052)"/>
<path d="M15.3734 16.063C12.0621 19.3743 12.0621 24.7467 15.3734 28.058C15.7068 28.3914 16.2453 28.3914 16.5755 28.058C19.8867 24.7467 19.8867 19.3743 16.5755 16.063C16.2453 15.7296 15.7068 15.7296 15.3734 16.063Z" fill="url(#paint2_linear_28327_8052)"/>
<path d="M6.87244 7.53624C6.87244 12.2195 10.6709 16.018 15.3542 16.018C15.8254 16.018 16.2036 15.6365 16.2036 15.1685C16.2036 10.4853 12.4051 6.68679 7.72189 6.68679C7.25389 6.68358 6.87244 7.06504 6.87244 7.53624Z" fill="url(#paint3_linear_28327_8052)"/>
<path d="M15.7452 16.4093C15.7452 21.0925 19.5438 24.891 24.227 24.891C24.6982 24.891 25.0764 24.5096 25.0764 24.0416C25.0764 19.3583 21.2779 15.5598 16.5947 15.5598C16.1267 15.5566 15.7452 15.9381 15.7452 16.4093Z" fill="url(#paint4_linear_28327_8052)"/>
<path d="M3.70541 16.3899C7.01669 19.7011 12.3891 19.7011 15.7004 16.3899C16.0337 16.0565 16.0337 15.518 15.7004 15.1878C12.3891 11.8765 7.01669 11.8765 3.70541 15.1878C3.37204 15.518 3.37204 16.0565 3.70541 16.3899Z" fill="url(#paint5_linear_28327_8052)"/>
<path d="M16.2517 16.3899C19.5662 19.7011 24.9354 19.7011 28.2466 16.3899C28.58 16.0565 28.58 15.518 28.2466 15.1878C24.9354 11.8765 19.563 11.8765 16.2517 15.1878C15.9183 15.518 15.9183 16.0565 16.2517 16.3899Z" fill="url(#paint6_linear_28327_8052)"/>
<path d="M7.7251 24.8908C12.4083 24.8908 16.2068 21.0923 16.2068 16.409C16.2068 15.9378 15.8254 15.5596 15.3574 15.5596C10.6709 15.5564 6.87244 19.3549 6.87244 24.0381C6.87244 24.5093 7.25389 24.8908 7.7251 24.8908Z" fill="url(#paint7_linear_28327_8052)"/>
<path d="M16.5242 15.9765C21.2074 15.9765 25.0059 12.1779 25.0059 7.49472C25.0059 7.02351 24.6244 6.64526 24.1564 6.64526C19.4732 6.64526 15.6747 10.4438 15.6747 15.127C15.6715 15.595 16.053 15.9765 16.5242 15.9765Z" fill="url(#paint8_linear_28327_8052)"/>
<path d="M15.9761 19.2782C17.904 19.2782 19.4668 17.7153 19.4668 15.7874C19.4668 13.8595 17.904 12.2966 15.9761 12.2966C14.0482 12.2966 12.4853 13.8595 12.4853 15.7874C12.4853 17.7153 14.0482 19.2782 15.9761 19.2782Z" fill="url(#paint9_linear_28327_8052)"/>
<defs>
<linearGradient id="paint0_linear_28327_8052" x1="16.0009" y1="3.00042" x2="16.0009" y2="29.2609" gradientUnits="userSpaceOnUse">
<stop offset="0.0111732" stop-color="#8ED800"/>
<stop offset="1" stop-color="#008461"/>
</linearGradient>
<linearGradient id="paint1_linear_28327_8052" x1="15.9761" y1="3.26585" x2="15.9761" y2="15.7601" gradientUnits="userSpaceOnUse">
<stop stop-color="#FF74BA"/>
<stop offset="0.436" stop-color="#F748A7"/>
<stop offset="1" stop-color="#EC098D"/>
</linearGradient>
<linearGradient id="paint2_linear_28327_8052" x1="15.9776" y1="28.3076" x2="15.9776" y2="15.8134" gradientUnits="userSpaceOnUse">
<stop stop-color="#FF74BA"/>
<stop offset="0.436" stop-color="#F748A7"/>
<stop offset="1" stop-color="#EC098D"/>
</linearGradient>
<linearGradient id="paint3_linear_28327_8052" x1="11.5398" y1="6.68388" x2="11.5398" y2="16.0171" gradientUnits="userSpaceOnUse">
<stop stop-color="#FF74BA"/>
<stop offset="0.436" stop-color="#F748A7"/>
<stop offset="1" stop-color="#EC098D"/>
</linearGradient>
<linearGradient id="paint4_linear_28327_8052" x1="20.4125" y1="24.89" x2="20.4125" y2="15.5568" gradientUnits="userSpaceOnUse">
<stop stop-color="#FF74BA"/>
<stop offset="0.436" stop-color="#F748A7"/>
<stop offset="1" stop-color="#EC098D"/>
</linearGradient>
<linearGradient id="paint5_linear_28327_8052" x1="7.79871" y1="12.4831" x2="11.6099" y2="19.0842" gradientUnits="userSpaceOnUse">
<stop stop-color="#FF74BA"/>
<stop offset="0.436" stop-color="#F748A7"/>
<stop offset="1" stop-color="#EC098D"/>
</linearGradient>
<linearGradient id="paint6_linear_28327_8052" x1="25.5518" y1="12.4839" x2="18.9522" y2="19.0834" gradientUnits="userSpaceOnUse">
<stop stop-color="#FF74BA"/>
<stop offset="0.436" stop-color="#F748A7"/>
<stop offset="1" stop-color="#EC098D"/>
</linearGradient>
<linearGradient id="paint7_linear_28327_8052" x1="11.5397" y1="24.8898" x2="11.5397" y2="15.5566" gradientUnits="userSpaceOnUse">
<stop stop-color="#FF74BA"/>
<stop offset="0.436" stop-color="#F748A7"/>
<stop offset="1" stop-color="#EC098D"/>
</linearGradient>
<linearGradient id="paint8_linear_28327_8052" x1="20.3387" y1="6.6428" x2="20.3387" y2="15.976" gradientUnits="userSpaceOnUse">
<stop stop-color="#FF74BA"/>
<stop offset="0.436" stop-color="#F748A7"/>
<stop offset="1" stop-color="#EC098D"/>
</linearGradient>
<linearGradient id="paint9_linear_28327_8052" x1="15.9761" y1="12.2965" x2="15.9761" y2="19.2776" gradientUnits="userSpaceOnUse">
<stop stop-color="#F8EC1D"/>
<stop offset="0.8631" stop-color="#F89C20"/>
<stop offset="1" stop-color="#F5891F"/>
</linearGradient>
</defs>
</svg>

<svg width="100%" height="100%" viewBox="0 0 32 32" xmlns="http://www.w3.org/2000/svg"><path fill="url(#a)" d="M17.688 6.991h-3.372c0-3.208-3.597-5.09-6.241-3.273-3.68 2.533-6.09 6.78-6.075 11.588.026 7.751 6.389 14.028 14.136 13.954C23.807 29.186 30 22.948 30 15.258c0-4.805-2.42-9.042-6.106-11.562-2.632-1.801-6.206.106-6.206 3.295"/><path fill="#EC098D" d="M11.392 6.232a7.317 7.317 0 0 0 4.013 9.536.73.73 0 0 0 .956-.404 7.317 7.317 0 0 0-4.014-9.536.73.73 0 0 0-.955.404"/><path fill="#EC098D" d="M15.591 16.207a7.317 7.317 0 0 0 4.014 9.537.73.73 0 0 0 .955-.404 7.317 7.317 0 0 0-4.013-9.537.734.734 0 0 0-.956.404"/><path fill="#EC098D" d="M5.978 12.27a7.32 7.32 0 0 0 9.581 3.908.73.73 0 0 0 .391-.961 7.316 7.316 0 0 0-9.58-3.908.735.735 0 0 0-.392.962"/><path fill="#EC098D" d="M16.002 16.358a7.316 7.316 0 0 0 9.58 3.907.73.73 0 0 0 .392-.961 7.316 7.316 0 0 0-9.581-3.908.733.733 0 0 0-.391.962"/><path fill="#EC098D" d="M6.42 20.371a7.317 7.317 0 0 0 9.537-4.013.73.73 0 0 0-.404-.956 7.317 7.317 0 0 0-9.536 4.014.737.737 0 0 0 .403.955"/><path fill="#EC098D" d="M16.396 16.172a7.317 7.317 0 0 0 9.536-4.014.73.73 0 0 0-.404-.955 7.317 7.317 0 0 0-9.536 4.014.735.735 0 0 0 .404.955"/><path fill="#EC098D" d="M12.46 25.785a7.316 7.316 0 0 0 3.907-9.58.733.733 0 0 0-.962-.392 7.315 7.315 0 0 0-3.907 9.581c.157.372.59.548.962.391"/><path fill="#EC098D" d="M16.473 15.752A7.315 7.315 0 0 0 20.38 6.17a.733.733 0 0 0-.961-.391 7.316 7.316 0 0 0-3.908 9.58c.16.376.59.552.962.392"/><path fill="url(#b)" d="M15.373 3.517a8.484 8.484 0 0 0 0 11.995.847.847 0 0 0 1.203 0 8.484 8.484 0 0 0 0-11.995.847.847 0 0 0-1.203 0"/><path fill="url(#c)" d="M15.373 16.063a8.484 8.484 0 0 0 0 11.995.847.847 0 0 0 1.203 0 8.484 8.484 0 0 0 0-11.995.847.847 0 0 0-1.203 0"/><path fill="url(#d)" d="M6.872 7.536a8.483 8.483 0 0 0 8.482 8.482c.471 0 .85-.382.85-.85a8.483 8.483 0 0 0-8.482-8.481.847.847 0 0 0-.85.85"/><path fill="url(#e)" d="M15.745 16.41a8.483 8.483 0 0 0 8.482 8.481c.471 0 .85-.381.85-.85a8.483 8.483 0 0 0-8.482-8.481.847.847 0 0 0-.85.85"/><path fill="url(#f)" d="M3.705 16.39a8.484 8.484 0 0 0 11.995 0 .85.85 0 0 0 0-1.202 8.484 8.484 0 0 0-11.995 0 .847.847 0 0 0 0 1.202"/><path fill="url(#g)" d="M16.252 16.39c3.314 3.311 8.683 3.311 11.995 0a.847.847 0 0 0 0-1.202 8.483 8.483 0 0 0-11.995 0 .847.847 0 0 0 0 1.202"/><path fill="url(#h)" d="M7.725 24.89a8.483 8.483 0 0 0 8.482-8.481.85.85 0 0 0-.85-.85 8.48 8.48 0 0 0-8.485 8.48c0 .47.382.852.853.852"/><path fill="url(#i)" d="M16.524 15.977a8.483 8.483 0 0 0 8.482-8.482.85.85 0 0 0-.85-.85 8.483 8.483 0 0 0-8.481 8.482.847.847 0 0 0 .85.85"/><path fill="url(#j)" d="M15.976 19.278a3.49 3.49 0 1 0 0-6.981 3.49 3.49 0 0 0 0 6.981"/><defs><linearGradient id="a" x1="16.001" x2="16.001" y1="3" y2="29.261" gradientUnits="userSpaceOnUse"><stop offset=".011" stop-color="#8ED800"/><stop offset="1" stop-color="#008461"/></linearGradient><linearGradient id="b" x1="15.976" x2="15.976" y1="3.266" y2="15.76" gradientUnits="userSpaceOnUse"><stop stop-color="#FF74BA"/><stop offset=".436" stop-color="#F748A7"/><stop offset="1" stop-color="#EC098D"/></linearGradient><linearGradient id="c" x1="15.978" x2="15.978" y1="28.308" y2="15.813" gradientUnits="userSpaceOnUse"><stop stop-color="#FF74BA"/><stop offset=".436" stop-color="#F748A7"/><stop offset="1" stop-color="#EC098D"/></linearGradient><linearGradient id="d" x1="11.54" x2="11.54" y1="6.684" y2="16.017" gradientUnits="userSpaceOnUse"><stop stop-color="#FF74BA"/><stop offset=".436" stop-color="#F748A7"/><stop offset="1" stop-color="#EC098D"/></linearGradient><linearGradient id="e" x1="20.413" x2="20.413" y1="24.89" y2="15.557" gradientUnits="userSpaceOnUse"><stop stop-color="#FF74BA"/><stop offset=".436" stop-color="#F748A7"/><stop offset="1" stop-color="#EC098D"/></linearGradient><linearGradient id="f" x1="7.799" x2="11.61" y1="12.483" y2="19.084" gradientUnits="userSpaceOnUse"><stop stop-color="#FF74BA"/><stop offset=".436" stop-color="#F748A7"/><stop offset="1" stop-color="#EC098D"/></linearGradient><linearGradient id="g" x1="25.552" x2="18.952" y1="12.484" y2="19.083" gradientUnits="userSpaceOnUse"><stop stop-color="#FF74BA"/><stop offset=".436" stop-color="#F748A7"/><stop offset="1" stop-color="#EC098D"/></linearGradient><linearGradient id="h" x1="11.54" x2="11.54" y1="24.89" y2="15.557" gradientUnits="userSpaceOnUse"><stop stop-color="#FF74BA"/><stop offset=".436" stop-color="#F748A7"/><stop offset="1" stop-color="#EC098D"/></linearGradient><linearGradient id="i" x1="20.339" x2="20.339" y1="6.643" y2="15.976" gradientUnits="userSpaceOnUse"><stop stop-color="#FF74BA"/><stop offset=".436" stop-color="#F748A7"/><stop offset="1" stop-color="#EC098D"/></linearGradient><linearGradient id="j" x1="15.976" x2="15.976" y1="12.296" y2="19.278" gradientUnits="userSpaceOnUse"><stop stop-color="#F8EC1D"/><stop offset=".863" stop-color="#F89C20"/><stop offset="1" stop-color="#F5891F"/></linearGradient></defs></svg>
